assets/Optical disk/Flat/optical_disk_flat.svg

<svg width="32" height="32" viewBox="0 0 32 32" fill="none" xmlns="http://www.w3.org/2000/svg">
<path d="M16 30C23.732 30 30 23.732 30 16C30 8.26801 23.732 2 16 2C8.26801 2 2 8.26801 2 16C2 23.732 8.26801 30 16 30ZM16 20C13.7909 20 12 18.2091 12 16C12 13.7909 13.7909 12 16 12C18.2091 12 20 13.7909 20 16C20 18.2091 18.2091 20 16 20Z" fill="#B4ACBC"/>
<path d="M19.5354 12.4645C18.6305 11.5596 17.3805 11 15.9998 11C15.0969 11 14.2499 11.2393 13.5187 11.658L10.2924 6.01207C9.88168 5.29326 10.1284 4.36866 10.8895 4.04295C12.4581 3.37164 14.1856 3 15.9998 3C19.0504 3 21.8555 4.05073 24.0731 5.81002C24.7221 6.3249 24.7173 7.28249 24.1315 7.86827L19.5354 12.4645ZM12.4643 19.5355C13.3691 20.4404 14.6191 21 15.9998 21C16.9028 21 17.7498 20.7607 18.481 20.3419L21.7072 25.9879C22.118 26.7067 21.8713 27.6313 21.1102 27.9571C19.5415 28.6284 17.8141 29 15.9998 29C12.9493 29 10.1441 27.9493 7.92657 26.19C7.27758 25.6751 7.28233 24.7175 7.86812 24.1317L12.4643 19.5355Z" fill="#F3EEF8"/>
</svg>

<svg xmlns="http://www.w3.org/2000/svg" width="32" height="32" fill="none"><path fill="#B4ACBC" d="M16 30c7.732 0 14-6.268 14-14S23.732 2 16 2 2 8.268 2 16s6.268 14 14 14Zm0-10a4 4 0 1 1 0-8 4 4 0 0 1 0 8Z"/><path fill="#F3EEF8" d="M19.535 12.464A4.984 4.984 0 0 0 16 11c-.903 0-1.75.24-2.481.658l-3.227-5.646c-.41-.719-.164-1.643.598-1.969A12.958 12.958 0 0 1 16 3c3.05 0 5.855 1.05 8.073 2.81.65.515.644 1.472.058 2.058l-4.596 4.596Zm-7.07 7.071A4.984 4.984 0 0 0 16 21c.903 0 1.75-.24 2.481-.658l3.226 5.646c.411.719.164 1.643-.597 1.97A12.958 12.958 0 0 1 16 29c-3.05 0-5.856-1.05-8.073-2.81-.65-.515-.645-1.473-.059-2.058l4.596-4.597Z"/></svg>
